packages/kaspersky-hexa-ui-icons/src/iconsSVGs/12/Error.svg

<svg width="12" height="12" viewBox="0 0 12 12" fill="none" xmlns="http://www.w3.org/2000/svg">
<path fill-rule="evenodd" clip-rule="evenodd" d="M5.10885 1.95208L0.70879 9.01769C0.293171 9.68509 0.792138 10.5342 1.59996 10.5342H10.4001C11.2079 10.5342 11.7069 9.68509 11.2913 9.01769L6.89119 1.95208C6.48753 1.3039 5.51251 1.30389 5.10885 1.95208ZM6 3.3418C6.35898 3.3418 6.65 3.63281 6.65 3.9918V6.61175C6.65 6.97074 6.35898 7.26175 6 7.26175C5.64102 7.26175 5.35 6.97074 5.35 6.61175V3.9918C5.35 3.63281 5.64102 3.3418 6 3.3418ZM6.75 8.83433C6.75 9.24854 6.41421 9.58433 6 9.58433C5.58579 9.58433 5.25 9.24854 5.25 8.83433C5.25 8.42011 5.58579 8.08433 6 8.08433C6.41421 8.08433 6.75 8.42011 6.75 8.83433Z" fill="black"/>
</svg>

<svg xmlns="http://www.w3.org/2000/svg" width="12" height="12" fill="none" viewBox="0 0 12 12"><path fill="#000" fill-rule="evenodd" d="M5.1089 1.952.7088 9.0176c-.4156.6674.0833 1.5165.8912 1.5165h8.8c.8078 0 1.3068-.849.8912-1.5165l-4.4-7.0656c-.4037-.6482-1.3787-.6482-1.7823 0M6 3.3417a.65.65 0 0 1 .65.65v2.62a.65.65 0 0 1-1.3 0v-2.62a.65.65 0 0 1 .65-.65m.75 5.4926a.75.75 0 1 1-1.5 0 .75.75 0 0 1 1.5 0"/></svg>
